images/celtic-knot-insquare-39crossings-88x88-web.svg

<svg height="88pt" viewBox="0 0 88 88" width="88pt" xmlns="http://www.w3.org/2000/svg"><g fill="none" transform="translate(-1.58 -1.58)"><g stroke-linejoin="round"><path d="m4.34 83.66v-14l19.52-19.48a9.87 9.87 0 1 1 0 14l-13.15-13.18 37.2-37.2a5.53 5.53 0 0 0 -3.91-9.46 39.66 39.66 0 0 0 0 79.32 5.53 5.53 0 0 0 3.91-9.44l-37.2-37.22 13.15-13.14a9.87 9.87 0 1 1 0 14l-19.52-19.56v-14" stroke="#000" stroke-width="5.526373"/><path d="m4.34 83.66v-14l19.52-19.48a9.87 9.87 0 1 1 0 14l-13.15-13.18 37.2-37.2a5.53 5.53 0 0 0 -3.91-9.46 39.66 39.66 0 0 0 0 79.32 5.53 5.53 0 0 0 3.91-9.44l-37.2-37.22 13.15-13.14a9.87 9.87 0 1 1 0 14l-19.52-19.56v-14" stroke="#4ccc6b" stroke-width="2.368445"/><path d="m83.66 83.66v-14l-19.52-19.48a9.87 9.87 0 1 0 0 14l13.15-13.18-37.2-37.2a5.53 5.53 0 0 1 3.91-9.46 39.66 39.66 0 0 1 0 79.32 5.53 5.53 0 0 1 -3.91-9.44l37.2-37.22-13.15-13.14a9.87 9.87 0 1 0 0 14l19.52-19.56v-14" stroke="#000" stroke-width="5.526373"/><path d="m83.66 83.66v-14l-19.52-19.48a9.87 9.87 0 1 0 0 14l13.15-13.18-37.2-37.2a5.53 5.53 0 0 1 3.91-9.46 39.66 39.66 0 0 1 0 79.32 5.53 5.53 0 0 1 -3.91-9.44l37.2-37.22-13.15-13.14a9.87 9.87 0 1 0 0 14l19.52-19.56v-14" stroke="#4ccc6b" stroke-width="2.368445"/><path d="m4.34 4.34h16.66v12.55a9.86 9.86 0 0 0 2.89 7l40.25 40.25a9.86 9.86 0 0 1 2.89 7v12.52h16.63" stroke="#000" stroke-width="5.526373"/><path d="m4.34 4.34h16.66v12.55a9.86 9.86 0 0 0 2.89 7l40.25 40.25a9.86 9.86 0 0 1 2.89 7v12.52h16.63" stroke="#4ccc6b" stroke-width="2.368445"/><path d="m4.34 83.66h16.66v-12.55a9.86 9.86 0 0 1 2.89-7l40.25-40.25a9.86 9.86 0 0 0 2.89-7v-12.52h16.63" stroke="#000" stroke-width="5.526373"/><path d="m4.34 83.66h16.66v-12.55a9.86 9.86 0 0 1 2.89-7l40.25-40.25a9.86 9.86 0 0 0 2.89-7v-12.52h16.63" stroke="#4ccc6b" stroke-width="2.368445"/></g><path d="m39.79 53a9.91 9.91 0 0 0 -4.79-4.79m13.21-13.21a9.91 9.91 0 0 0 4.79 4.79m-13.21-13.12a9.89 9.89 0 0 0 -4.79-4.77m13.2 39.43a9.89 9.89 0 0 0 4.8 4.77m-26.33-26.31a10.18 10.18 0 0 1 -2.81-2l-2.1-2.11m39.57 12.5a10.18 10.18 0 0 1 2.81 2l2.1 2.11m-39.57 13.81a9.94 9.94 0 0 1 -2.81-2l-2.1-2.1m39.57-40.1a9.94 9.94 0 0 1 2.81 2l2.1 2.1m13.7 1.27a39.64 39.64 0 0 0 -3.46-6m-68.42 39.49a39.64 39.64 0 0 0 3.46 6m13.25-57.45a40.49 40.49 0 0 0 -8.32 6.16m46.78 63.22a40.49 40.49 0 0 0 8.32-6.16m-22.19 6.94a5.52 5.52 0 0 1 -5.36 4.19 39.45 39.45 0 0 1 -8.25-.87m-7.01-49.79 4.26-4.26m26.26 26.31-4.21 4.21m-8.94-43.68-4.22 4.21m30.53 22.1-4.21 4.22m-48.42-4.22-4.21 4.22m57.64-17.37-4.22 4.26m-50-4.26-4.22 4.26m58.44 22.1-4.22 4.16m-50-4.21-4.21 4.21m33.29-37.5 4.21 4.24m9.71 9.71 4.21 4.22m-44.45 8.14 4.24 4.22m9.71 9.71 4.22 4.21m-27.52-39.84-4.87-4.87m68.05 40.13 4.87 4.87m3.2-52.29v-9.87h-9.87m-69.45 69.45v9.87h9.87m69.45-9.87v9.87h-9.87m-69.45-69.45v-9.87h9.87" stroke="#000" stroke-miterlimit="10" stroke-width="5.526373"/><path d="m39.86 53.14a9.91 9.91 0 0 0 -5-5m13.28-13.28a9.91 9.91 0 0 0 5 5m-13.28-13a9.87 9.87 0 0 0 -5-5m13.28 39.31a9.87 9.87 0 0 0 5 5m-26.31-26.31a9.78 9.78 0 0 1 -3-2l-2.23-2.24m39.57 12.52a9.78 9.78 0 0 1 3 2l2.23 2.24m-39.57 13.79a9.93 9.93 0 0 1 -3-2l-2.2-2.27m39.54-40.07a9.93 9.93 0 0 1 3 2l2.23 2.24m13.86 1.77a39.77 39.77 0 0 0 -4.15-7.18m-68.34 39.47a39.77 39.77 0 0 0 4.15 7.18m13.46-58.31a39.58 39.58 0 0 0 -9.38 7m46.62 63a39.58 39.58 0 0 0 9.38-7m-22.62 7.38a5.53 5.53 0 0 1 -5.38 4.28 39.37 39.37 0 0 1 -8.92-1m-6.47-49.58 4.47-4.47m26.31 26.31-4.47 4.47m-8.68-43.94-4.48 4.47m30.79 21.84-4.47 4.48m-48.16-4.48-4.47 4.48m57.9-17.63-4.47 4.47m-49.76-4.47-4.47 4.47m58.7 21.84-4.47 4.47m-49.76-4.47-4.47 4.47m33.29-37.76 4.48 4.47m9.48 9.48 4.47 4.48m-44.74 7.88 4.47 4.48m9.48 9.48 4.48 4.47m-27.52-39.87-5.13-5.13m68.05 40.13 5.13 5.13m3.07-52.29v-10h-10m-69.32 69.32v10h10m69.32-10v10h-10m-69.32-69.32v-10h10" stroke="#4ccc6b" stroke-miterlimit="10" stroke-width="2.368445"/></g></svg>

<svg xmlns="http://www.w3.org/2000/svg" width="88pt" height="88pt" viewBox="0 0 88 88"><path d="M4.34,83.66v-14L23.86,50.18a9.87,9.87,0,1,1,0,14L10.71,51l37.2-37.2A5.53,5.53,0,0,0,44,4.34a39.66,39.66,0,0,0,0,79.32,5.53,5.53,0,0,0,3.91-9.44L10.71,37,23.86,23.86a9.87,9.87,0,1,1,0,14L4.34,18.3v-14" transform="translate(-1.58 -1.58)" style="fill:none;stroke:#000;stroke-linejoin:round;stroke-width:5.526372626423836px"/><path d="M4.34,83.66v-14L23.86,50.18a9.87,9.87,0,1,1,0,14L10.71,51l37.2-37.2A5.53,5.53,0,0,0,44,4.34a39.66,39.66,0,0,0,0,79.32,5.53,5.53,0,0,0,3.91-9.44L10.71,37,23.86,23.86a9.87,9.87,0,1,1,0,14L4.34,18.3v-14" transform="translate(-1.58 -1.58)" style="fill:none;stroke:#4ccc6b;stroke-linejoin:round;stroke-width:2.368445411324501px"/><path d="M83.66,83.66v-14L64.14,50.18a9.87,9.87,0,1,0,0,14L77.29,51l-37.2-37.2A5.53,5.53,0,0,1,44,4.34a39.66,39.66,0,0,1,0,79.32,5.53,5.53,0,0,1-3.91-9.44L77.29,37,64.14,23.86a9.87,9.87,0,1,0,0,14L83.66,18.3v-14" transform="translate(-1.58 -1.58)" style="fill:none;stroke:#000;stroke-linejoin:round;stroke-width:5.526372626423836px"/><path d="M83.66,83.66v-14L64.14,50.18a9.87,9.87,0,1,0,0,14L77.29,51l-37.2-37.2A5.53,5.53,0,0,1,44,4.34a39.66,39.66,0,0,1,0,79.32,5.53,5.53,0,0,1-3.91-9.44L77.29,37,64.14,23.86a9.87,9.87,0,1,0,0,14L83.66,18.3v-14" transform="translate(-1.58 -1.58)" style="fill:none;stroke:#4ccc6b;stroke-linejoin:round;stroke-width:2.368445411324501px"/><path d="M4.34,4.34H21V16.89a9.86,9.86,0,0,0,2.89,7L64.14,64.14a9.86,9.86,0,0,1,2.89,7V83.66H83.66" transform="translate(-1.58 -1.58)" style="fill:none;stroke:#000;stroke-linejoin:round;stroke-width:5.526372626423836px"/><path d="M4.34,4.34H21V16.89a9.86,9.86,0,0,0,2.89,7L64.14,64.14a9.86,9.86,0,0,1,2.89,7V83.66H83.66" transform="translate(-1.58 -1.58)" style="fill:none;stroke:#4ccc6b;stroke-linejoin:round;stroke-width:2.368445411324501px"/><path d="M4.34,83.66H21V71.11a9.86,9.86,0,0,1,2.89-7L64.14,23.86a9.86,9.86,0,0,0,2.89-7V4.34H83.66" transform="translate(-1.58 -1.58)" style="fill:none;stroke:#000;stroke-linejoin:round;stroke-width:5.526372626423836px"/><path d="M4.34,83.66H21V71.11a9.86,9.86,0,0,1,2.89-7L64.14,23.86a9.86,9.86,0,0,0,2.89-7V4.34H83.66" transform="translate(-1.58 -1.58)" style="fill:none;stroke:#4ccc6b;stroke-linejoin:round;stroke-width:2.368445411324501px"/><path d="M39.79,53A9.91,9.91,0,0,0,35,48.21M48.21,35A9.91,9.91,0,0,0,53,39.79M39.79,26.67A9.89,9.89,0,0,0,35,21.9m13.2,39.43A9.89,9.89,0,0,0,53,66.1M26.67,39.79a10.18,10.18,0,0,1-2.81-2l-2.1-2.11m39.57,12.5a10.18,10.18,0,0,1,2.81,2l2.1,2.11M26.67,66.1a9.94,9.94,0,0,1-2.81-2L21.76,62M61.33,21.9a9.94,9.94,0,0,1,2.81,2L66.24,26m13.7,1.27a39.64,39.64,0,0,0-3.46-6M8.06,60.76a39.64,39.64,0,0,0,3.46,6M24.77,9.31a40.49,40.49,0,0,0-8.32,6.16M63.23,78.69a40.49,40.49,0,0,0,8.32-6.16M49.36,79.47A5.52,5.52,0,0,1,44,83.66a39.45,39.45,0,0,1-8.25-.87M28.74,33,33,28.74M59.26,55.05l-4.21,4.21M46.11,15.58l-4.22,4.21m30.53,22.1-4.21,4.22M19.79,41.89l-4.21,4.22M73.22,28.74,69,33M19,28.74,14.78,33m58.44,22.1L69,59.26M19,55.05l-4.21,4.21m33.29-37.5L52.29,26M62,35.71l4.21,4.22M21.76,48.07,26,52.29M35.71,62l4.22,4.21M12.41,26.37,7.54,21.5M75.59,61.63l4.87,4.87m3.2-52.29V4.34H73.79M4.34,73.79v9.87h9.87m69.45-9.87v9.87H73.79M4.34,14.21V4.34h9.87" transform="translate(-1.58 -1.58)" style="fill:none;stroke:#000;stroke-miterlimit:10;stroke-width:5.526372626423836px"/><path d="M39.86,53.14a9.91,9.91,0,0,0-5-5M48.14,34.86a9.91,9.91,0,0,0,5,5m-13.28-13a9.87,9.87,0,0,0-5-5M48.14,61.17a9.87,9.87,0,0,0,5,5M26.83,39.86a9.78,9.78,0,0,1-3-2l-2.23-2.24M61.17,48.14a9.78,9.78,0,0,1,3,2l2.23,2.24M26.83,66.17a9.93,9.93,0,0,1-3-2L21.63,61.9M61.17,21.83a9.93,9.93,0,0,1,3,2l2.23,2.24m13.86,1.77a39.77,39.77,0,0,0-4.15-7.18M7.77,60.13a39.77,39.77,0,0,0,4.15,7.18M25.38,9A39.58,39.58,0,0,0,16,16M62.62,79A39.58,39.58,0,0,0,72,72M49.38,79.38A5.53,5.53,0,0,1,44,83.66a39.37,39.37,0,0,1-8.92-1M28.61,33.08l4.47-4.47M59.39,54.92l-4.47,4.47M46.24,15.45l-4.48,4.47M72.55,41.76l-4.47,4.48M19.92,41.76l-4.47,4.48m57.9-17.63-4.47,4.47M19.12,28.61l-4.47,4.47m58.7,21.84-4.47,4.47M19.12,54.92l-4.47,4.47M47.94,21.63l4.48,4.47m9.48,9.48,4.47,4.48M21.63,47.94l4.47,4.48m9.48,9.48,4.48,4.47M12.54,26.5,7.41,21.37M75.46,61.5l5.13,5.13m3.07-52.29v-10h-10M4.34,73.66v10h10m69.32-10v10h-10M4.34,14.34v-10h10" transform="translate(-1.58 -1.58)" style="fill:none;stroke:#4ccc6b;stroke-miterlimit:10;stroke-width:2.368445411324501px"/></svg>
